X: 34342
T: Return To Camden Town, The
R: reel
M: 4/4
K: Cmajor
E2 DG EA, A,2|E2DG EGAB|cBcd ed (3efg|ag^fd cABG|
E2 DG EA, A,2|E2DG EGAB|cBcd ed (3efg|ag^fd cAAB|
c2 gc acgc|c2 ge dBGB|cBcd ed (3efg|ag^fd cAAB|
c2 gc acgc|c2 ge dBGB|cBcd ed (3efg|ag^fd cABG|

